X: 110
T: La stangetta
%%abc-version 2.0
%%abcx-abcm2ps-target-version 5.9.1 (29 Sep 2008)
%%abc-creator hum2abc beta
%%abcx-conversion-date 2022/03/06 13:05:54
%%abc-copyright Copyright 2018, Kolb, Paul
%%abc-edited-by Zybina, Karina
%%humdrum-veritas 1721680253
%%humdrum-veritas-data 1272716930
%%linebreak <none>
%%barnumbers 0
L: 1/8
M: 4/4
N: Derived from Gas0506.3-La_stangetta_Neusidler.krn
%%staves {1 2}
V: 1 clef=treble
V: 2 clef=bass
K: F
[V:1] z8 | 
[V:2] G,4G,4 | 
[V:1] z8 | 
[V:2] A,4A,B,CA, | 
[V:1] G4G4 | 
[V:2] B,2B,2B,2C/B,/A,/G,/ | 
[V:1] A4A4 | 
[V:2] F,4F,4 | 
[V:1] B2B2>B2 AG | 
[V:2] G,4G,2F,_E, | 
[V:1] F4F4 | 
[V:2] A,4A,4 & D,4D,4 | 
[V:1] G4G2A/G/F/E/ | 
[V:2] B,4B,4 & B,,2G,,2G,,4 | 
[V:1] D2d2dcBA | 
[V:2] F,4F,4 & B,,C,D,6 | 
[V:1] B2B2>B2 AG | 
[V:2] G,2G,2G,2F,_E, & G,,2G,,6 | 
[V:1] F6D2 | 
[V:2] F,G,A,4F,2 & D,4D,4 | 
[V:1] F4G4 | 
[V:2] A,CB,A,B,2B,2- & z4_E,2G,2- | 
[V:1] x8 & G4A4 | 
[V:2] B,2A,G,F,2F,2 & G,2F,E,D,2D,2 | 
[V:1] A2d2dcBA | 
[V:2] F4D4- & F,E,D,C,z4 | 
[V:1] G2A4G2- | 
[V:2] D2C2D2B,2 & E,2F,2F,2G,2 | 
[V:1] G/G/^F/E/ GFG4 | 
[V:2] A,4G,2G,,2 | 
[V:1] z8 | 
[V:2] z2G,2G,A,B,2 & G,,2G,,A,,B,,2G,,2 | 
[V:1] z8 | 
[V:2] G,2B,2B,CD2 & B,,2B,,C,D,2B,,2 | 
[V:1] z8 | 
[V:2] DCB,A,G,2A,2- & G,,2G,,A,,B,,2C,2 | 
[V:1] z8 | 
[V:2] A,2G,4^F,2 & D,2G,,2A,,4 | 
[V:1] z2G2GAB2 | 
[V:2] G,2G,A,B,2G,2 & G,,8 | 
[V:1] G2B2Bcd2 | 
[V:2] B,2B,CD2B,2- & G,4D,4- | 
[V:1] dcBAG2A2- | 
[V:2] B,4B,2C2 & D,4B,,2A,,2 | 
[V:1] A2G2G^F G/F/E/F/ | 
[V:2] D2G,2A,4 & D,2_E,2D,4 | 
[V:1] G4d2d2 | 
[V:2] G,4z4- & _E,4z2D,2- | 
[V:1] dcBAd2c2 | 
[V:2] x8 & D,4B,,2_E,2 | 
[V:1] cBB4A2 | 
[V:2] x8 & _E,D,B,,2C,4 | 
[V:1] B4z4 | 
[V:2] z4D2D2- & B,,4G,,2G,2 | 
[V:1] z8 | 
[V:2] D2CB,D2C2 & G,F,_E,D,F,2E,2 | 
[V:1] z8 | 
[V:2] CB,B,4A,2 & _E,D,C,B,,C,4 | 
[V:1] B2d4cB | 
[V:2] B,4B,2A,2 & B,,2G,,6 | 
[V:1] AGFED2A2 | 
[V:2] C4D2C2 & F,E,D,C,B,,2A,,2- | 
[V:1] AG FE/D/E4 | 
[V:2] A,6C2 & A,,2B,,2A,,4 | 
[V:1] F2B2BAGF | 
[V:2] z2B,6 & D,2G,2G,F,E,D, | 
[V:1] E2A2AGFE | 
[V:2] C8 & C,2F,2F,E,D,C, | 
[V:1] D2G6 | 
[V:2] B,4G,4 & B,,2G,,2G,,A,,B,,C, | 
[V:1] ^F2G4F2 | 
[V:2] A,4A,4 & D,2_E,2D,4 | 
[V:1] G2GA BcB2 | 
[V:2] G,8 & G,,4z2G,,2- | 
[V:1] BA2<B2B AG | 
[V:2] G,4G,4 & G,,2G,,4F,_E, | 
[V:1] F2FG ABA2 | 
[V:2] A,4A,4 & D,2D,E,F,2A,2 | 
[V:1] AG A/G/A/B/ AGFE | 
[V:2] A,4A,4 & D,2F,2F,E,D,C, | 
[V:1] D2DEF2G2 | 
[V:2] B,4B,4 & B,,2B,,C,D,2_E,2 | 
[V:1] F2G2GFED | 
[V:2] B,4B,4 & D,2_E,4D,2 | 
[V:1] E/D/E/F/ EFG2A2 | 
[V:2] C4C4 & C,2C,D,E,2F,2 | 
[V:1] G2A2AGFE | 
[V:2] C4C4 & E,2F,6 | 
[V:1] F2FGA2B2 | 
[V:2] z4D4 & D,2D,E,F,2G,2 | 
[V:1] A2B2BABc | 
[V:2] D4D4 & F,2B,,6 | 
[V:1] d2D2DEFE | 
[V:2] B,4G,4 & G,,2B,,2B,,C,D,C, | 
[V:1] C2E/D/E/F/ EFGF | 
[V:2] A,8 & A,,2C,4E,D, | 
[V:1] D2F2FGAG | 
[V:2] B,4B,4 & B,,2D,2D,_E,F,E, | 
[V:1] E2G2GABA | 
[V:2] C8 & C,2E,2E,F,G,F, | 
[V:1] F2FGA2B2- | 
[V:2] z4D4 & D,2D,_E,F,2G,2 | 
[V:1] BBAGF4 | 
[V:2] G,4A,4 & G,2F,_E,D,4 | 
[V:1] D2G2>G2 F_E | 
[V:2] B,4C4 & B,,2_E,4D,C, | 
[V:1] D2G4F_E | 
[V:2] D4G,2A,2 & B,,2_E,4D,C, | 
[V:1] D2E2D2d2- | 
[V:2] B,2C2D2G,2 & B,,2A,,2B,,2G,,2- | 
[V:1] d2cBA2B2 | 
[V:2] G,A,A,G,D4 & G,,4F,2G,2 | 
[V:1] A2B2BAG2- | 
[V:2] C2D4B,C & A,2D,2F,2G,2 | 
[V:1] G/G/^F/E/ G/F/E/F/ | 
[V:2] A,4 & D,4 | 
[V:1] !fermata!G8 | 
[V:2] !fermata!G,8 & !fermata!G,,8 | 
[V:1] G2G2D2G2 | 
[V:2] G,2_E2B,2E2- & G,,2C,2G,,2C,2- | 
[V:1] F/_E/D/C/D4D2 | 
[V:2] E2B,6- & C,2G,,2>A,,2B,,2 | 
[V:1] _E2>D2E4 | 
[V:2] B,8 & C,2>B,,2C,4 | 
[V:1] !fermata!D8 |]  
[V:2] !fermata!B,8 & !fermata!G,,8 |]  


